src/components/header/images/bcEcolar.svg

<svg width="284" height="937" viewBox="0 0 284 937" fill="none"
    xmlns="http://www.w3.org/2000/svg">
    <g opacity="0.7">
        <path d="M3.74124 -32L280.087 -32L280.087 86.8337L244.65 86.8337L244.65 19.6668L165.16 19.6668L165.16 72.5003L130.048 72.5003L130.048 19.6668L38.6909 19.6668L38.6909 87.5004L3.74124 87.5004L3.74124 -32Z" fill="rgba(255, 255, 255, 0.6)"/>
        <path d="M0.000332175 186.667C0.000333085 165.834 3.90167 149.667 11.8669 137.834C19.8322 126 30.7235 117.834 44.3782 113.167C58.1955 108.5 73.9635 106.167 92.0073 106.167L190.679 106.167C209.536 106.167 225.954 108.5 239.771 113.167C253.588 117.834 264.317 126 271.795 137.834C279.272 149.667 283.011 165.834 283.011 186.667C283.011 206.168 279.76 221.501 273.258 232.668C266.756 243.668 257.49 251.668 245.461 256.334C233.431 261.001 219.452 263.334 203.521 263.334L180.276 263.334L180.276 213.668L204.171 213.668C211.974 213.668 218.964 213.334 225.304 212.501C231.643 211.668 236.683 209.501 240.421 205.834C244.16 202.167 246.111 196.001 246.111 187.167C246.111 178.334 244.16 171.834 240.096 167.834C236.195 163.834 230.831 161.167 224.003 160.001C217.338 158.834 209.698 158.334 201.245 158.334L81.116 158.334C71.0375 158.334 62.9097 159.167 56.4074 160.834C49.9051 162.501 45.0285 165.501 41.7773 169.834C38.5262 174.167 36.9006 180.001 36.9006 187.501C36.9006 196.167 38.8513 202.167 42.9152 205.834C46.8166 209.501 52.1809 211.667 58.8458 212.667C65.5106 213.668 72.8256 214.001 80.9535 214.001L106.15 214.001L106.15 263.668L84.042 263.668C67.6238 263.668 53.1563 261.501 40.4769 257.001C27.7975 252.501 18.0441 244.834 10.729 233.668C3.57653 222.168 0.0003313 206.668 0.000332175 186.667Z" fill="rgba(255, 255, 255, 0.6)"/>
        <path d="M0.00164441 367.335C0.00164528 347.335 3.57785 331.335 10.8929 319.502C18.2079 307.668 28.6116 299.168 42.2664 294.002C55.9211 288.835 72.0142 286.335 90.7082 286.335L194.094 286.335C212.788 286.335 228.719 288.835 242.048 294.002C255.378 299.168 265.457 307.668 272.609 319.502C279.599 331.335 283.175 347.335 283.175 367.335C283.175 387.836 279.599 404.002 272.609 415.836C265.619 427.669 255.378 436.169 242.048 441.336C228.719 446.503 212.788 449.169 194.094 449.169L90.3831 449.169C72.0142 449.169 55.9211 446.503 42.4289 441.336C28.9367 436.169 18.3705 427.502 11.0555 415.836C3.74041 404.002 0.00164351 387.835 0.00164441 367.335ZM37.2271 367.335C37.2271 376.002 39.0152 382.336 42.754 386.336C46.3303 390.336 51.3695 393.169 57.7093 394.502C64.049 395.836 71.0389 396.669 78.5165 396.669L205.798 396.669C213.601 396.669 220.428 396.002 226.606 394.502C232.783 393.002 237.497 390.336 241.073 386.336C244.649 382.336 246.437 375.835 246.438 367.335C246.438 359.169 244.649 353.002 241.073 348.835C237.497 344.669 232.783 341.835 226.606 340.502C220.428 339.169 213.601 338.335 205.798 338.335L78.5165 338.335C71.0389 338.335 64.049 339.002 57.7093 340.335C51.3695 341.669 46.3303 344.335 42.754 348.502C39.0152 352.669 37.2271 359.002 37.2271 367.335Z" fill="rgba(255, 255, 255, 0.6)"/>
        <path d="M3.74121 479.002L280.087 479.002L280.087 530.836L38.5283 530.836L38.5283 599.336L3.74121 599.336L3.74121 479.002Z" fill="rgba(255, 255, 255, 0.6)"/>
        <path d="M3.74124 603.502L280.087 660.169L280.087 715.502L3.74123 772.169L3.74124 724.336L67.4634 713.169L67.4634 663.836L3.74124 652.335L3.74124 603.502ZM99.6496 668.836L99.6496 707.336L215.552 688.169L99.6496 668.836Z" fill="rgba(255, 255, 255, 0.6)"/>
        <path d="M3.74075 789.836L280.087 789.836L280.087 857.67C280.087 876.837 277.812 893.004 273.423 906.17C269.034 919.337 261.393 929.337 250.665 936.171C239.936 943.004 225.468 946.504 206.937 946.504C195.72 946.504 185.804 945.504 176.864 943.337C167.923 941.171 160.446 937.671 154.106 932.671C147.929 927.671 143.052 920.67 139.638 911.837L3.57818 951.337L3.57818 899.504L130.047 865.17L130.047 841.337L3.74075 841.337L3.74075 789.836ZM162.071 841.503L162.071 857.67C162.071 867.67 163.534 875.67 166.298 881.67C169.061 887.67 173.613 891.837 179.952 894.504C186.13 897.004 194.257 898.337 204.011 898.337C217.828 898.337 228.232 895.67 235.222 890.504C242.212 885.337 245.625 875.337 245.625 860.67L245.625 841.837L162.071 841.837L162.071 841.503Z" fill="rgba(255, 255, 255, 0.6)"/>
    </g>
</svg>

<svg width="284" height="937" fill="none" xmlns="http://www.w3.org/2000/svg"><g opacity=".7" fill="rgba(255, 255, 255, 0.6)"><path d="M3.741-32h276.346V86.834H244.65V19.667h-79.49V72.5h-35.112V19.667H38.691V87.5H3.74V-32zM0 186.667c0-20.833 3.902-37 11.867-48.833 7.965-11.834 18.856-20 32.511-24.667 13.818-4.667 29.585-7 47.63-7h98.671c18.857 0 35.275 2.333 49.092 7s24.546 12.833 32.024 24.667c7.477 11.833 11.216 28 11.216 48.833 0 19.501-3.251 34.834-9.753 46.001-6.502 11-15.768 19-27.797 23.666-12.03 4.667-26.009 7-41.94 7h-23.245v-49.666h23.895c7.803 0 14.793-.334 21.133-1.167 6.339-.833 11.379-3 15.117-6.667 3.739-3.667 5.69-9.833 5.69-18.667 0-8.833-1.951-15.333-6.015-19.333-3.901-4-9.265-6.667-16.093-7.833-6.665-1.167-14.305-1.667-22.758-1.667H81.116c-10.079 0-18.206.833-24.709 2.5-6.502 1.667-11.378 4.667-14.63 9-3.25 4.333-4.876 10.167-4.876 17.667 0 8.666 1.95 14.666 6.014 18.333 3.902 3.667 9.266 5.833 15.93 6.833 6.666 1.001 13.98 1.334 22.109 1.334h25.196v49.667H84.042c-16.418 0-30.886-2.167-43.565-6.667-12.68-4.5-22.433-12.167-29.748-23.333C3.577 222.168 0 206.668 0 186.667zM.002 367.335c0-20 3.576-36 10.89-47.833 7.316-11.834 17.72-20.334 31.374-25.5 13.655-5.167 29.748-7.667 48.442-7.667h103.386c18.694 0 34.625 2.5 47.954 7.667 13.33 5.166 23.409 13.666 30.561 25.5 6.99 11.833 10.566 27.833 10.566 47.833 0 20.501-3.576 36.667-10.566 48.501-6.99 11.833-17.231 20.333-30.561 25.5-13.329 5.167-29.26 7.833-47.954 7.833H90.384c-18.37 0-34.463-2.666-47.955-7.833-13.492-5.167-24.059-13.834-31.373-25.5C3.74 404.002.002 387.835.002 367.335zm37.225 0c0 8.667 1.788 15.001 5.527 19.001 3.576 4 8.616 6.833 14.955 8.166a101.119 101.119 0 0020.807 2.167h127.282c7.803 0 14.63-.667 20.808-2.167 6.177-1.5 10.891-4.166 14.467-8.166 3.576-4 5.364-10.501 5.365-19.001 0-8.166-1.789-14.333-5.365-18.5-3.576-4.166-8.29-7-14.467-8.333-6.178-1.333-13.005-2.167-20.808-2.167H78.516c-7.477 0-14.467.667-20.807 2-6.34 1.334-11.379 4-14.955 8.167-3.739 4.167-5.527 10.5-5.527 18.833zM3.741 479.002h276.346v51.834H38.528v68.5H3.741V479.002zM3.741 603.502l276.346 56.667v55.333L3.741 772.169v-47.833l63.722-11.167v-49.333L3.741 652.335v-48.833zm95.909 65.334v38.5l115.902-19.167L99.65 668.836zM3.74 789.836h276.347v67.834c0 19.167-2.275 35.334-6.664 48.5-4.389 13.167-12.03 23.167-22.758 30.001-10.729 6.833-25.197 10.333-43.728 10.333-11.217 0-21.133-1-30.073-3.167-8.941-2.166-16.418-5.666-22.758-10.666-6.177-5-11.054-12.001-14.468-20.834l-136.06 39.5v-51.833l126.469-34.334v-23.833H3.741v-51.501zm158.331 51.667v16.167c0 10 1.463 18 4.227 24 2.763 6 7.315 10.167 13.654 12.834 6.178 2.5 14.305 3.833 24.059 3.833 13.817 0 24.221-2.667 31.211-7.833 6.99-5.167 10.403-15.167 10.403-29.834v-18.833h-83.554v-.334z"/></g></svg>
